X: 1634
T: Anne's
R: reel
M: 4/4
K: Dmajor
|:AG|F2EF DFFD|FAAB B2AB|d2fd BddB|ABAF EAAG|
F2EF DFFD|FAAB B2AB|d2fd BddB|Addc d2:|
|:fg|a2ag faaf|efed BddB|A2fA fAAf|A2fA e2fg|
a2ag faaf|efed BddB|A2fA fAAf|A2fe d2:|

